public/alergenos/dioxido-de-azufre-y-sulfitos.svg

<?xml version="1.0" encoding="UTF-8" standalone="no"?>
<!-- Created with Inkscape (http://www.inkscape.org/) -->

<svg
   xmlns:dc="http://purl.org/dc/elements/1.1/"
   xmlns:cc="http://creativecommons.org/ns#"
   xmlns:rdf="http://www.w3.org/1999/02/22-rdf-syntax-ns#"
   xmlns:svg="http://www.w3.org/2000/svg"
   xmlns="http://www.w3.org/2000/svg"
   xmlns:sodipodi="http://sodipodi.sourceforge.net/DTD/sodipodi-0.dtd"
   xmlns:inkscape="http://www.inkscape.org/namespaces/inkscape"
   width="262.20471"
   height="372.04724"
   id="svg4209"
   version="1.1"
   inkscape:version="0.48.5 r10040"
   sodipodi:docname="IconoAlergenoDioxidoAzufreSulfitos.svg">
  <defs
     id="defs4211" />
  <sodipodi:namedview
     id="base"
     pagecolor="#ffffff"
     bordercolor="#666666"
     borderopacity="1.0"
     inkscape:pageopacity="0.0"
     inkscape:pageshadow="2"
     inkscape:zoom="0.20031052"
     inkscape:cx="751.07539"
     inkscape:cy="884.34989"
     inkscape:document-units="px"
     inkscape:current-layer="layer1"
     showgrid="false"
     inkscape:window-width="1280"
     inkscape:window-height="924"
     inkscape:window-x="0"
     inkscape:window-y="28"
     inkscape:window-maximized="1" />
  <metadata
     id="metadata4214">
    <rdf:RDF>
      <cc:Work
         rdf:about="">
        <dc:format>image/svg+xml</dc:format>
        <dc:type
           rdf:resource="http://purl.org/dc/dcmitype/StillImage" />
        <dc:title></dc:title>
      </cc:Work>
    </rdf:RDF>
  </metadata>
  <g
     inkscape:label="Capa 1"
     inkscape:groupmode="layer"
     id="layer1"
     transform="translate(0,-680.31494)">
    <g
       id="g3298"
       transform="matrix(4.1030005,0,0,4.1030005,-784.27251,-540.32916)">
      <text
         sodipodi:linespacing="125%"
         id="text4033-9-92"
         y="364.43274"
         x="223.00758"
         style="font-size:15px;font-style:normal;font-weight:normal;text-align:center;line-height:125%;letter-spacing:0px;word-spacing:0px;text-anchor:middle;fill:#000000;fill-opacity:1;stroke:none;font-family:Sans"
         xml:space="preserve"><tspan
           style="font-size:5.5px"
           id="tspan4037-1-9"
           y="364.43274"
           x="223.00758"
           sodipodi:role="line">DIÓXIDO DE AZUFRE</tspan><tspan
           id="tspan3318"
           style="font-size:5.5px"
           y="371.30774"
           x="223.00758"
           sodipodi:role="line">Y SULFITOS</tspan></text>
      <g
         id="g3276">
        <path
           sodipodi:type="arc"
           style="fill:#82104e;fill-opacity:1;stroke:#82104e;stroke-width:3;stroke-linecap:round;stroke-linejoin:round;stroke-miterlimit:4;stroke-opacity:1;stroke-dasharray:none;stroke-dashoffset:0"
           id="path3230-2-9"
           sodipodi:cx="21.573027"
           sodipodi:cy="29.287827"
           sodipodi:rx="18.363815"
           sodipodi:ry="18.720394"
           d="m 39.936842,29.287827 c 0,10.338988 -8.22176,18.720394 -18.363815,18.720394 -10.142055,0 -18.3638157,-8.381406 -18.3638157,-18.720394 0,-10.338989 8.2217607,-18.720395 18.3638157,-18.720395 10.142055,0 18.363815,8.381406 18.363815,18.720395 z"
           transform="matrix(1.0403305,0,0,1.0205147,200.65581,305.0533)" />
        <g
           id="g4196"
           transform="translate(-290.43647,304.95931)">
          <g
             id="g4054">
            <text
               xml:space="preserve"
               style="font-size:40px;font-style:normal;font-weight:normal;line-height:125%;letter-spacing:0px;word-spacing:0px;fill:#ffffff;fill-opacity:1;stroke:none;font-family:Sans"
               x="504.79108"
               y="23.955332"
               id="text4061"
               sodipodi:linespacing="125%"><tspan
                 sodipodi:role="line"
                 id="tspan4063"
                 x="504.79108"
                 y="23.955332"
                 style="font-size:10px;font-weight:bold;fill:#ffffff;fill-opacity:1;-inkscape-font-specification:Sans Bold">E</tspan></text>
            <text
               xml:space="preserve"
               style="font-size:40px;font-style:normal;font-weight:normal;line-height:125%;letter-spacing:0px;word-spacing:0px;fill:#ffffff;fill-opacity:1;stroke:none;font-family:Sans"
               x="510.72043"
               y="24.006355"
               id="text4061-7"
               sodipodi:linespacing="125%"><tspan
                 sodipodi:role="line"
                 id="tspan4063-7"
                 x="510.72043"
                 y="24.006355"
                 style="font-size:10px;font-weight:bold;fill:#ffffff;fill-opacity:1;-inkscape-font-specification:Sans Bold">-</tspan></text>
            <text
               xml:space="preserve"
               style="font-size:40px;font-style:normal;font-weight:normal;line-height:125%;letter-spacing:0px;word-spacing:0px;fill:#ffffff;fill-opacity:1;stroke:none;font-family:Sans"
               x="513.88678"
               y="23.955332"
               id="text4061-76"
               sodipodi:linespacing="125%"><tspan
                 sodipodi:role="line"
                 id="tspan4063-8"
                 x="513.88678"
                 y="23.955332"
                 style="font-size:10px;font-weight:bold;fill:#ffffff;fill-opacity:1;-inkscape-font-specification:Sans Bold">X</tspan></text>
          </g>
          <path
             sodipodi:nodetypes="ccccccccccccccccccccccc"
             inkscape:connector-curvature="0"
             id="path4062"
             d="m 519.65999,43.21305 -0.019,-1.26034 6.03008,-3.582736 -0.0761,-7.437103 -5.99205,-3.392605 -0.0162,-1.377137 -0.9181,-0.0027 0,1.349981 -5.17718,3.017759 -5.27224,-3.053067 0.0217,-1.290224 -0.87734,-0.0163 0,1.290223 -5.98392,3.430622 -0.0516,7.575629 6.03008,3.490389 -0.003,1.230466 0.90995,0.03259 -0.008,-1.273928 5.15545,-3.036763 5.25323,2.993312 -0.038,1.336392 z"
             style="fill:#ffffff;fill-opacity:1;stroke:#ffffff;stroke-width:0.05;stroke-linecap:round;stroke-linejoin:round;stroke-miterlimit:4;stroke-opacity:1;stroke-dasharray:none" />
          <path
             sodipodi:nodetypes="ccccccc"
             inkscape:connector-curvature="0"
             id="path4074"
             d="m 507.84861,29.120614 4.80313,2.778672 0.0132,5.555137 -4.87369,2.91099 -4.87812,-2.813958 0.022,-5.711709 z"
             style="fill:#82104e;fill-opacity:1;stroke:#82104e;stroke-width:0.05;stroke-linecap:butt;stroke-linejoin:miter;stroke-miterlimit:4;stroke-opacity:1;stroke-dasharray:none" />
          <path
             sodipodi:nodetypes="ccccc"
             inkscape:connector-curvature="0"
             id="path3266"
             d="m 503.8512,32.182889 0.47639,0.80235 3.71088,-2.156317 -0.44704,-0.79196 z"
             style="fill:#ffffff;fill-opacity:1;stroke:#ffffff;stroke-width:0.05;stroke-linecap:butt;stroke-linejoin:miter;stroke-miterlimit:4;stroke-opacity:1;stroke-dasharray:none" />
          <path
             sodipodi:nodetypes="ccccccc"
             inkscape:connector-curvature="0"
             id="path4074-5"
             d="m 519.27475,28.820864 4.80313,2.778672 0.0132,5.555137 -4.87369,2.91099 -4.87812,-2.813958 0.022,-5.711709 z"
             style="fill:#82104e;fill-opacity:1;stroke:#82104e;stroke-width:0.05;stroke-linecap:butt;stroke-linejoin:miter;stroke-miterlimit:4;stroke-opacity:1;stroke-dasharray:none" />
          <path
             sodipodi:nodetypes="ccccc"
             inkscape:connector-curvature="0"
             id="path3266-0"
             d="m 515.19695,32.173577 0.47639,0.80235 3.71088,-2.156317 -0.44704,-0.79196 z"
             style="fill:#ffffff;fill-opacity:1;stroke:#ffffff;stroke-width:0.05;stroke-linecap:butt;stroke-linejoin:miter;stroke-miterlimit:4;stroke-opacity:1;stroke-dasharray:none" />
          <path
             inkscape:connector-curvature="0"
             id="path4054"
             d="m 522.39735,32.565698 0.88659,0.01773 -0.0177,4.486152 -3.91873,2.322869 -0.4433,-0.815664 3.47544,-1.968233 z"
             style="fill:#ffffff;fill-opacity:1;stroke:#ffffff;stroke-width:0.05;stroke-linecap:butt;stroke-linejoin:miter;stroke-miterlimit:4;stroke-opacity:1;stroke-dasharray:none" />
          <path
             sodipodi:nodetypes="ccccccc"
             inkscape:connector-curvature="0"
             id="path4054-2"
             d="m 511.00464,32.556833 0.97525,0.01773 -0.0177,4.486152 -3.91873,2.322869 -0.51423,-0.762469 3.47544,-1.985964 z"
             style="fill:#ffffff;fill-opacity:1;stroke:#ffffff;stroke-width:0.05;stroke-linecap:butt;stroke-linejoin:miter;stroke-miterlimit:4;stroke-opacity:1;stroke-dasharray:none" />
          <path
             transform="matrix(1.0149284,0,0,1.040206,-5.2062888,1.7465242)"
             d="m 501.38862,28.692717 c 0,0.731306 -0.60766,1.324148 -1.35725,1.324148 -0.74959,0 -1.35725,-0.592842 -1.35725,-1.324148 0,-0.731307 0.60766,-1.324148 1.35725,-1.324148 0.74959,0 1.35725,0.592841 1.35725,1.324148 z"
             sodipodi:ry="1.3241479"
             sodipodi:rx="1.3572516"
             sodipodi:cy="28.692717"
             sodipodi:cx="500.03137"
             id="path4064"
             style="fill:#ffffff;fill-opacity:1;stroke:#82104e;stroke-width:0.77859682;stroke-linecap:round;stroke-linejoin:round;stroke-miterlimit:4;stroke-opacity:1;stroke-dasharray:none"
             sodipodi:type="arc" />
          <path
             transform="matrix(1.0149284,0,0,1.040206,-5.2697431,7.9797913)"
             d="m 501.38862,28.692717 c 0,0.731306 -0.60766,1.324148 -1.35725,1.324148 -0.74959,0 -1.35725,-0.592842 -1.35725,-1.324148 0,-0.731307 0.60766,-1.324148 1.35725,-1.324148 0.74959,0 1.35725,0.592841 1.35725,1.324148 z"
             sodipodi:ry="1.3241479"
             sodipodi:rx="1.3572516"
             sodipodi:cy="28.692717"
             sodipodi:cx="500.03137"
             id="path4064-8"
             style="fill:#ffffff;fill-opacity:1;stroke:#82104e;stroke-width:0.77859682;stroke-linecap:round;stroke-linejoin:round;stroke-miterlimit:4;stroke-opacity:1;stroke-dasharray:none"
             sodipodi:type="arc" />
          <path
             transform="matrix(1.0149284,0,0,1.040206,5.9985204,8.2838253)"
             d="m 501.38862,28.692717 c 0,0.731306 -0.60766,1.324148 -1.35725,1.324148 -0.74959,0 -1.35725,-0.592842 -1.35725,-1.324148 0,-0.731307 0.60766,-1.324148 1.35725,-1.324148 0.74959,0 1.35725,0.592841 1.35725,1.324148 z"
             sodipodi:ry="1.3241479"
             sodipodi:rx="1.3572516"
             sodipodi:cy="28.692717"
             sodipodi:cx="500.03137"
             id="path4064-2"
             style="fill:#ffffff;fill-opacity:1;stroke:#82104e;stroke-width:0.77859682;stroke-linecap:round;stroke-linejoin:round;stroke-miterlimit:4;stroke-opacity:1;stroke-dasharray:none"
             sodipodi:type="arc" />
          <path
             transform="matrix(1.0149284,0,0,1.040206,17.348381,8.152151)"
             d="m 501.38862,28.692717 c 0,0.731306 -0.60766,1.324148 -1.35725,1.324148 -0.74959,0 -1.35725,-0.592842 -1.35725,-1.324148 0,-0.731307 0.60766,-1.324148 1.35725,-1.324148 0.74959,0 1.35725,0.592841 1.35725,1.324148 z"
             sodipodi:ry="1.3241479"
             sodipodi:rx="1.3572516"
             sodipodi:cy="28.692717"
             sodipodi:cx="500.03137"
             id="path4064-0"
             style="fill:#ffffff;fill-opacity:1;stroke:#82104e;stroke-width:0.77859682;stroke-linecap:round;stroke-linejoin:round;stroke-miterlimit:4;stroke-opacity:1;stroke-dasharray:none"
             sodipodi:type="arc" />
        </g>
      </g>
    </g>
  </g>
</svg>

<svg xmlns="http://www.w3.org/2000/svg" xmlns:xlink="http://www.w3.org/1999/xlink" width="80" zoomAndPan="magnify" viewBox="0 0 60 67.92" height="80" preserveAspectRatio="xMidYMid meet" version="1.0"><defs><g/></defs><path stroke-linecap="round" transform="matrix(1.317061, 0, 0, 1.296259, 1.75414, -8.279621)" fill-opacity="1" fill="#82104e" fill-rule="nonzero" stroke-linejoin="round" d="M 39.935462 29.286749 C 39.935462 39.625996 31.71403 48.009495 21.573669 48.009495 C 11.430343 48.009495 3.20891 39.625996 3.20891 29.286749 C 3.20891 18.947501 11.430343 10.567015 21.573669 10.567015 C 31.71403 10.567015 39.935462 18.947501 39.935462 29.286749 Z M 39.935462 29.286749 " stroke="#82104e" stroke-width="3" stroke-opacity="1" stroke-miterlimit="4"/><g fill="#ffffff" fill-opacity="1"><g transform="translate(19.095721, 22.020383)"><g><path d="M 1.15625 -9.265625 L 7.578125 -9.265625 L 7.578125 -7.453125 L 3.546875 -7.453125 L 3.546875 -5.734375 L 7.34375 -5.734375 L 7.34375 -3.921875 L 3.546875 -3.921875 L 3.546875 -1.8125 L 7.71875 -1.8125 L 7.71875 0 L 1.15625 0 Z M 1.15625 -9.265625 "/></g></g></g><g fill="#ffffff" fill-opacity="1"><g transform="translate(26.602466, 22.090662)"><g><path d="M 0.6875 -4.5625 L 4.5625 -4.5625 L 4.5625 -2.75 L 0.6875 -2.75 Z M 0.6875 -4.5625 "/></g></g></g><g fill="#ffffff" fill-opacity="1"><g transform="translate(30.606837, 22.020383)"><g><path d="M 6.296875 -4.71875 L 9.5 0 L 7.03125 0 L 4.875 -3.15625 L 2.734375 0 L 0.234375 0 L 3.4375 -4.71875 L 0.359375 -9.265625 L 2.84375 -9.265625 L 4.875 -6.28125 L 6.890625 -9.265625 L 9.375 -9.265625 Z M 6.296875 -4.71875 "/></g></g></g><path stroke-linecap="round" transform="matrix(1.266002, 0, 0, 1.270201, -619.969683, -8.399013)" fill-opacity="1" fill="#ffffff" fill-rule="nonzero" stroke-linejoin="round" d="M 519.660743 43.214572 L 519.64223 41.953699 L 525.671298 38.370974 L 525.594161 30.931823 L 519.602119 27.539766 L 519.586691 26.162032 L 518.667212 26.158957 L 518.667212 27.509013 L 513.492828 30.528958 L 508.219707 27.475185 L 508.241306 26.183559 L 507.365023 26.168183 L 507.365023 27.459809 L 501.379152 30.888768 L 501.326699 38.466308 L 507.358852 41.956774 L 507.355767 43.186894 L 508.26599 43.217647 L 508.256733 41.944473 L 513.412605 38.909151 L 518.667212 41.901418 L 518.627101 43.236099 Z M 519.660743 43.214572 " stroke="#ffffff" stroke-width="0.05" stroke-opacity="1" stroke-miterlimit="4"/><path stroke-linecap="butt" transform="matrix(1.266002, 0, 0, 1.270201, -619.969683, -8.399013)" fill-opacity="1" fill="#82104e" fill-rule="nonzero" stroke-linejoin="miter" d="M 507.849447 29.120471 L 512.650486 31.900542 L 512.665913 37.454534 L 507.790823 40.366844 L 502.912646 37.552944 L 502.934245 31.839036 Z M 507.849447 29.120471 " stroke="#82104e" stroke-width="0.05" stroke-opacity="1" stroke-miterlimit="4"/><path stroke-linecap="butt" transform="matrix(1.266002, 0, 0, 1.270201, -619.969683, -8.399013)" fill-opacity="1" fill="#ffffff" fill-rule="nonzero" stroke-linejoin="miter" d="M 503.850638 32.18347 L 504.328891 32.986123 L 508.037663 30.830338 L 507.590265 30.03691 Z M 503.850638 32.18347 " stroke="#ffffff" stroke-width="0.05" stroke-opacity="1" stroke-miterlimit="4"/><path stroke-linecap="butt" transform="matrix(1.266002, 0, 0, 1.270201, -619.969683, -8.399013)" fill-opacity="1" fill="#82104e" fill-rule="nonzero" stroke-linejoin="miter" d="M 519.275056 28.822167 L 524.07918 31.599163 L 524.091522 37.153155 L 519.216431 40.065464 L 514.338255 37.251564 L 514.359853 31.540732 Z M 519.275056 28.822167 " stroke="#82104e" stroke-width="0.05" stroke-opacity="1" stroke-miterlimit="4"/><path stroke-linecap="butt" transform="matrix(1.266002, 0, 0, 1.270201, -619.969683, -8.399013)" fill-opacity="1" fill="#ffffff" fill-rule="nonzero" stroke-linejoin="miter" d="M 515.196024 32.174244 L 515.674276 32.976897 L 519.383048 30.821112 L 518.935651 30.027684 Z M 515.196024 32.174244 " stroke="#ffffff" stroke-width="0.05" stroke-opacity="1" stroke-miterlimit="4"/><path stroke-linecap="butt" transform="matrix(1.266002, 0, 0, 1.270201, -619.969683, -8.399013)" fill-opacity="1" fill="#ffffff" fill-rule="nonzero" stroke-linejoin="miter" d="M 522.397582 32.564807 L 523.283121 32.583259 L 523.267693 37.070122 L 519.346022 39.391973 L 518.904796 38.577019 L 522.379069 36.608827 Z M 522.397582 32.564807 " stroke="#ffffff" stroke-width="0.05" stroke-opacity="1" stroke-miterlimit="4"/><path stroke-linecap="butt" transform="matrix(1.266002, 0, 0, 1.270201, -619.969683, -8.399013)" fill-opacity="1" fill="#ffffff" fill-rule="nonzero" stroke-linejoin="miter" d="M 511.005914 32.555581 L 511.980932 32.574033 L 511.962419 37.060896 L 508.043834 39.382748 L 507.528555 38.620073 L 511.005914 36.636504 Z M 511.005914 32.555581 " stroke="#ffffff" stroke-width="0.05" stroke-opacity="1" stroke-miterlimit="4"/><path stroke-linecap="round" transform="matrix(1.284901, 0, 0, 1.321271, -626.560864, -6.180576)" fill-opacity="1" fill="#ffffff" fill-rule="nonzero" stroke-linejoin="round" d="M 501.389985 28.692862 C 501.389985 29.423101 500.781962 30.017344 500.031053 30.017344 C 499.283185 30.017344 498.675161 29.423101 498.675161 28.692862 C 498.675161 27.962623 499.283185 27.368379 500.031053 27.368379 C 500.781962 27.368379 501.389985 27.962623 501.389985 28.692862 Z M 501.389985 28.692862 " stroke="#82104e" stroke-width="0.779" stroke-opacity="1" stroke-miterlimit="4"/><path stroke-linecap="round" transform="matrix(1.284901, 0, 0, 1.321271, -626.641217, 1.736927)" fill-opacity="1" fill="#ffffff" fill-rule="nonzero" stroke-linejoin="round" d="M 501.38868 28.693214 C 501.38868 29.423453 500.780656 30.017697 500.032788 30.017697 C 499.281879 30.017697 498.673855 29.423453 498.673855 28.693214 C 498.673855 27.960019 499.281879 27.368732 500.032788 27.368732 C 500.780656 27.368732 501.38868 27.960019 501.38868 28.693214 Z M 501.38868 28.693214 " stroke="#82104e" stroke-width="0.779" stroke-opacity="1" stroke-miterlimit="4"/><path stroke-linecap="round" transform="matrix(1.284901, 0, 0, 1.321271, -612.375548, 2.123112)" fill-opacity="1" fill="#ffffff" fill-rule="nonzero" stroke-linejoin="round" d="M 501.388646 28.693618 C 501.388646 29.423857 500.780622 30.0181 500.032754 30.0181 C 499.281845 30.0181 498.673821 29.423857 498.673821 28.693618 C 498.673821 27.960423 499.281845 27.369136 500.032754 27.369136 C 500.780622 27.369136 501.388646 27.960423 501.388646 28.693618 Z M 501.388646 28.693618 " stroke="#82104e" stroke-width="0.779" stroke-opacity="1" stroke-miterlimit="4"/><path stroke-linecap="round" transform="matrix(1.284901, 0, 0, 1.321271, -598.00661, 1.955859)" fill-opacity="1" fill="#ffffff" fill-rule="nonzero" stroke-linejoin="round" d="M 501.387283 28.693076 C 501.387283 29.423316 500.782299 30.017559 500.031391 30.017559 C 499.280482 30.017559 498.675499 29.423316 498.675499 28.693076 C 498.675499 27.962837 499.280482 27.368594 500.031391 27.368594 C 500.782299 27.368594 501.387283 27.962837 501.387283 28.693076 Z M 501.387283 28.693076 " stroke="#82104e" stroke-width="0.779" stroke-opacity="1" stroke-miterlimit="4"/></svg>
